X:2
T:Gigue a` Paddy
C:Joseph Allard
M:6/8
L:1/8
Z:abc by Bruce Osborne - bosborne@kos.net
K:G
d|gfg efg|afd def|gfg efg|afd def|!
g2 g aga|bgg bge|dcB AGA|BGG G2:|!
|:E|DGB AGA|Bcd efg|G2 B AGA|BGE E2 D|!
DGB AGA|Bcd efg|dcB AGA|BGG G2:|!
